javascript.info/5-network/05-fetch-crossorigin/xhr-another-domain.svg

<svg xmlns="http://www.w3.org/2000/svg" width="633" height="411" viewBox="0 0 633 411"><defs><style>@import url(https://fonts.googleapis.com/css?family=Open+Sans:bold,italic,bolditalic%7CPT+Mono);@font-face{font-family:&apos;PT Mono&apos;;font-weight:700;font-style:normal;src:local(&apos;PT MonoBold&apos;),url(/pack/modules/styles/blocks/font/PTMonoBold.woff2) format(&apos;woff2&apos;),url(/pack/modules/styles/blocks/font/PTMonoBold.woff) format(&apos;woff&apos;),url(/pack/modules/styles/blocks/font/PTMonoBold.ttf) format(&apos;truetype&apos;)}</style></defs><g id="network" fill="none" fill-rule="evenodd" stroke="none" stroke-width="1"><g id="xhr-another-domain.svg"><path id="Rectangle-227" fill="#FFF9EB" stroke="#E8C48E" stroke-width="2" d="M1 16h128v64H1z"/><text id="JavaScript" fill="#8A704D" font-family="OpenSans-Regular, Open Sans" font-size="14" font-weight="normal"><tspan x="35" y="50">JavaScript</tspan></text><path id="Rectangle-228" fill="#FFF9EB" stroke="#E8C48E" stroke-width="2" d="M261 16h128v64H261z"/><text id="Browser" fill="#8A704D" font-family="OpenSans-Regular, Open Sans" font-size="14" font-weight="normal"><tspan x="296" y="50">Browser</tspan></text><path id="Rectangle-229" fill="#FFF9EB" stroke="#E8C48E" stroke-width="2" d="M504 16h128v64H504z"/><text id="Server" fill="#8A704D" font-family="OpenSans-Regular, Open Sans" font-size="14" font-weight="normal"><tspan x="544" y="50">Server</tspan></text><path id="Line" stroke="#979797" stroke-linecap="square" d="M66 81v320M326 81v320M569 81v320"/><path id="Line" fill="#EE6B47" fill-rule="nonzero" d="M312 141H66v-2h246v-6l14 7-14 7v-6z"/><text id="Origin:-https://java" fill="#8A704D" font-family="OpenSans-Regular, Open Sans" font-size="14" font-weight="normal"><tspan x="354.313" y="205">Origin: https://javascript.info</tspan></text><text id="HTTP-request" fill="#8A704D" font-family="OpenSans-Regular, Open Sans" font-size="14" font-weight="normal"><tspan x="401.015" y="174">HTTP-request</tspan></text><text id="fetch()" fill="#8A704D" font-family="OpenSans-Regular, Open Sans" font-size="14" font-weight="normal"><tspan x="171" y="131">fetch()</tspan></text><text id="HTTP-response" fill="#8A704D" font-family="OpenSans-Regular, Open Sans" font-size="14" font-weight="normal"><tspan x="398.419" y="250">HTTP-response</tspan></text><text id="Access-Control-Allow" fill="#8A704D" font-family="OpenSans-Regular, Open Sans" font-size="14" font-weight="normal"><tspan x="355" y="287">Access-Control-Allow-Origin: </tspan> <tspan x="360.13" y="305">* OR https://javascript.info</tspan></text><text id="if-the-header-allows" fill="#8A704D" font-family="OpenSans-Regular, Open Sans" font-size="14" font-weight="normal"><tspan x="85" y="325">if the header allows, then success,</tspan></text><text id="otherwise-fail" fill="#8A704D" font-family="OpenSans-Regular, Open Sans" font-size="14" font-weight="normal"><tspan x="148" y="353">otherwise fail</tspan></text><path id="Line" fill="#EE6B47" fill-rule="nonzero" d="M554 188H328v-2h226v-6l14 7-14 7v-6z"/><path id="Line-2" fill="#EE6B47" fill-rule="nonzero" d="M340 264h228v2H340v6l-14-7 14-7v6z"/><path id="Line-3" fill="#EE6B47" fill-rule="nonzero" d="M80 332h247v2H80v6l-14-7 14-7v6z"/></g></g></svg>

<?xml version="1.0" encoding="UTF-8"?>
<svg width="633px" height="411px" viewBox="0 0 633 411" version="1.1" xmlns="http://www.w3.org/2000/svg" xmlns:xlink="http://www.w3.org/1999/xlink">
    <!-- Generator: sketchtool 55.2 (78181) - https://sketchapp.com -->
    <title>xhr-another-domain.svg</title>
    <desc>Created with sketchtool.</desc>
    <g id="network" stroke="none" stroke-width="1" fill="none" fill-rule="evenodd">
        <g id="xhr-another-domain.svg">
            <rect id="Rectangle-227" stroke="#E8C48E" stroke-width="2" fill="#FFF9EB" x="1" y="16" width="128" height="64"></rect>
            <text id="JavaScript" font-family="OpenSans-Regular, Open Sans" font-size="14" font-weight="normal" fill="#8A704D">
                <tspan x="35" y="50">JavaScript</tspan>
            </text>
            <rect id="Rectangle-228" stroke="#E8C48E" stroke-width="2" fill="#FFF9EB" x="261" y="16" width="128" height="64"></rect>
            <text id="Browser" font-family="OpenSans-Regular, Open Sans" font-size="14" font-weight="normal" fill="#8A704D">
                <tspan x="296" y="50">Browser</tspan>
            </text>
            <rect id="Rectangle-229" stroke="#E8C48E" stroke-width="2" fill="#FFF9EB" x="504" y="16" width="128" height="64"></rect>
            <text id="Server" font-family="OpenSans-Regular, Open Sans" font-size="14" font-weight="normal" fill="#8A704D">
                <tspan x="544" y="50">Server</tspan>
            </text>
            <path d="M66,81 L66,401" id="Line" stroke="#979797" stroke-linecap="square"></path>
            <path d="M326,81 L326,401" id="Line" stroke="#979797" stroke-linecap="square"></path>
            <path d="M569,81 L569,401" id="Line" stroke="#979797" stroke-linecap="square"></path>
            <path id="Line" d="M312,141 L66,141 L66,139 L312,139 L312,133 L326,140 L312,147 L312,141 Z" fill="#EE6B47" fill-rule="nonzero"></path>
            <text id="Origin:-https://java" font-family="OpenSans-Regular, Open Sans" font-size="14" font-weight="normal" line-spacing="26" fill="#8A704D">
                <tspan x="354.3125" y="205">Origin: https://javascript.info</tspan>
            </text>
            <text id="HTTP-request" font-family="OpenSans-Regular, Open Sans" font-size="14" font-weight="normal" line-spacing="26" fill="#8A704D">
                <tspan x="401.015137" y="174">HTTP-request</tspan>
            </text>
            <text id="fetch()" font-family="OpenSans-Regular, Open Sans" font-size="14" font-weight="normal" fill="#8A704D">
                <tspan x="171" y="131">fetch()</tspan>
            </text>
            <text id="HTTP-response" font-family="OpenSans-Regular, Open Sans" font-size="14" font-weight="normal" line-spacing="27" fill="#8A704D">
                <tspan x="398.418945" y="250">HTTP-response</tspan>
            </text>
            <text id="Access-Control-Allow" font-family="OpenSans-Regular, Open Sans" font-size="14" font-weight="normal" line-spacing="18" fill="#8A704D">
                <tspan x="355" y="287">Access-Control-Allow-Origin: </tspan>
                <tspan x="360.130371" y="305">* OR https://javascript.info</tspan>
            </text>
            <text id="if-the-header-allows" font-family="OpenSans-Regular, Open Sans" font-size="14" font-weight="normal" line-spacing="18" fill="#8A704D">
                <tspan x="85" y="325">if the header allows, then success,</tspan>
            </text>
            <text id="otherwise-fail" font-family="OpenSans-Regular, Open Sans" font-size="14" font-weight="normal" line-spacing="18" fill="#8A704D">
                <tspan x="148" y="353">otherwise fail</tspan>
            </text>
            <path id="Line" d="M554,188 L328,188 L328,186 L554,186 L554,180 L568,187 L554,194 L554,188 Z" fill="#EE6B47" fill-rule="nonzero"></path>
            <path id="Line-2" d="M340,264 L568,264 L568,266 L340,266 L340,272 L326,265 L340,258 L340,264 Z" fill="#EE6B47" fill-rule="nonzero"></path>
            <path id="Line-3" d="M80,332 L327,332 L327,334 L80,334 L80,340 L66,333 L80,326 L80,332 Z" fill="#EE6B47" fill-rule="nonzero"></path>
        </g>
    </g>
</svg>
